!!!OTL: 325. Das Marlborough-Lied (1709).
!!!ARE: Europa, Mitteleuropa, Deutschland
!!!SCT: E0325
!!!TXL: @@DE
!!!YEM: Copyright 1995, estate of Helmut Schaffrath.
**kern	**text
*ICvox	*
*M6/8	*
*k[f#]	*
*G:	*
!LO:TX:a:t=Muſik 1785.	!
{8b	Marl-
=1	=1
4b	-bruck
8b	ʒog
4b	aus
8a	ʒum
=2	=2
4.cc	Krie-
8b}	-ge
{8cc	mi-
8b	-rong
=3	=3
4a	tong
8a	tong
8a	tong,
8g	mi-
8a	-rong-
=4	=4
4.b/	-tai-
4g}	-ne!
{8g	Marl-
=5	=5
4b	-bruck
8b	ʒog
4b	aus
8a	ʒum
=6	=6
4.cc	Krie-
4b}	-ge,
{8dd	weiß
=7	=7
4b	nicht
8b	kömmt
(16bqq	.
8aL)	er
8gJ	.
8a	ʒu-
=8	=8
4.b	-rück,
4r}	.
{8dd	weiß
=9	=9
4dd	nicht
8b	kömmt
4cc	er
8ee	ʒu-
=10	=10
4.dd	-rück,
4r}	.
{8dd	weiß
=11	=11
4dd	nicht
8b	kömmt
4cc	er
8ee	ʒu
=12	=12
4.dd	rück.
4r}	.
==	==
!!!AGN: historisches Lied, Krieg, Marlborough (1709)
!!!ONB: ESAC (Essen Associative Code) Database: ERK1
!!!AMT: compound duple
!!!AIN: vox
!!!EED: Helmut Schaffrath
!!!EEV: 1.0
!!!GTL: Historische Lieder
!!!URL-scan: https://rosdok.uni-rostock.de/mcrviewer/recordIdentifier/rosdok_ppn745177662/iview2/phys_0140.iview2?x=-544.0401362767932&y=-135.7520203825552&scale=0.4722427387526479&rotation=0&layout=singlePageLayout
!!!ENC: Anna Maria Matuszewska
!!!EEV: 2024/06/12
*-	*-
